src/apps/symbolic/aptdaemon-download-symbolic.svg

<svg width="16" height="16" version="1.1" xmlns="http://www.w3.org/2000/svg">
 <g color="#000000" fill="#363636">
  <path d="m4.994 0c-1.258 0.015-2.179-0.03-2.932 0.385a1.88 1.88 0 0 0-0.837 0.998c-0.165 0.437-0.225 0.96-0.225 1.617v10c0 0.658 0.06 1.179 0.225 1.617 0.164 0.439 0.461 0.789 0.837 0.996 0.753 0.415 1.674 0.372 2.932 0.387h5.012c1.258-0.015 2.179 0.03 2.932-0.385a1.88 1.88 0 0 0 0.837-0.998c0.165-0.438 0.225-0.96 0.225-1.617v-10c0-0.658-0.06-1.179-0.225-1.617a1.875 1.875 0 0 0-0.838-0.996c-0.752-0.415-1.673-0.372-2.931-0.387h-5.008zm6e-3 1h5c1.259 0.015 2.09 0.06 2.455 0.262 0.184 0.1 0.287 0.213 0.385 0.472 0.097 0.26 0.16 0.674 0.16 1.266v10c0 0.592-0.063 1.006-0.16 1.266-0.098 0.26-0.202 0.371-0.385 0.472-0.366 0.202-1.197 0.247-2.455 0.262h-5c-1.259-0.015-2.09-0.06-2.455-0.262-0.184-0.1-0.287-0.213-0.385-0.472-0.097-0.26-0.16-0.674-0.16-1.266v-10c0-0.592 0.063-1.006 0.16-1.266 0.098-0.26 0.203-0.371 0.387-0.472 0.366-0.202 1.193-0.247 2.453-0.262z" font-family="sans-serif" font-weight="400" overflow="visible" solid-color="#000000" style="font-feature-settings:normal;font-variant-alternates:normal;font-variant-caps:normal;font-variant-ligatures:normal;font-variant-numeric:normal;font-variant-position:normal;isolation:auto;mix-blend-mode:normal;shape-padding:0;text-decoration-color:#000000;text-decoration-line:none;text-decoration-style:solid;text-indent:0;text-orientation:mixed;text-transform:none;white-space:normal"/>
  <path d="m6 1v5.998h-2.477l3.977 5.002 3.975-5h-2.475v-6z" overflow="visible"/>
 </g>
</svg>

<svg xmlns="http://www.w3.org/2000/svg" width="16" height="16">
    <g fill="#050505" color="#000" opacity=".7">
        <path d="M4.994 0C3.736.015 2.815-.03 2.062.385a1.88 1.88 0 0 0-.837.998C1.06 1.82 1 2.343 1 3v10c0 .658.06 1.179.225 1.617.164.439.461.789.837.996.753.415 1.674.372 2.932.387h5.012c1.258-.015 2.179.03 2.932-.385a1.88 1.88 0 0 0 .837-.998c.165-.438.225-.96.225-1.617V3c0-.658-.06-1.179-.225-1.617a1.875 1.875 0 0 0-.838-.996C12.185-.028 11.264.015 10.006 0H4.998zM5 1h5c1.259.015 2.09.06 2.455.262.184.1.287.213.385.472.097.26.16.674.16 1.266v10c0 .592-.063 1.006-.16 1.266-.098.26-.202.371-.385.472-.366.202-1.197.247-2.455.262H5c-1.259-.015-2.09-.06-2.455-.262-.184-.1-.287-.213-.385-.472C2.063 14.006 2 13.592 2 13V3c0-.592.063-1.006.16-1.266.098-.26.203-.371.387-.472C2.913 1.06 3.74 1.015 5 1z" font-family="sans-serif" font-weight="400" overflow="visible" style="font-feature-settings:normal;font-variant-alternates:normal;font-variant-caps:normal;font-variant-ligatures:normal;font-variant-numeric:normal;font-variant-position:normal;isolation:auto;mix-blend-mode:normal;shape-padding:0;text-decoration-color:#000;text-decoration-line:none;text-decoration-style:solid;text-indent:0;text-orientation:mixed;text-transform:none;white-space:normal"/>
        <path d="M6 1v5.998H3.523L7.5 12l3.975-5H9V1z" overflow="visible"/>
    </g>
</svg>
